X:22
T:Don't Touch That Green Linnet
C:Tommy Peoples
Z:robin.beech@mcgill.ca
S:Padraig O'Neill, Victoria Bar, Glasgow
R:jig
M:6/8
L:1/8
K:D
D2F FEF | ABA dfa | baf afd | ege fdA | D2 F FEF | Adc dfa |
baf afd |1 edB AFE :|2 edB Adf |: a3 fdf | g2e bge | afd cde |
dcB A2d | afd Adf | bge g2b |afd cde |1 fdc d3 :|2 fdc dAG |:
F2A fdA | G2B geB | c2e a3 | ba^g a2g | afd2 AF | G2B geB | c2a age | fdc dAG :|
